other/MeteoSwiss.svg

<svg width="48" height="48" version="1.1" viewBox="0 0 48 48" xmlns="http://www.w3.org/2000/svg">
 <path d="m12.389 8.293c-1.5535 0.033036-3.0581 0.25593-4.0527 0.65625l-0.38672 0.1543 0.089844 1.7441c0.048949 0.95912 0.17778 2.164 0.28516 2.6777 0.42861 2.0506 1.7223 3.8474 3.5352 4.9043 0.57345 0.33432 0.94796 0.47174 1.1289 0.41602 0.62301-0.19187 1.5284-0.82656 2.373-1.6641 1.6217-1.6081 2.2819-3.606 2.2051-6.668l-0.037109-1.5098-0.79102-0.23438c-1.193-0.3538-2.7961-0.5096-4.3496-0.47656zm-0.53125 1.5625h0.93359 0.93555v1.0684 1.0684h1.1328 1.1348v0.92773 0.92773l-1.1016 0.039063-1.0996 0.039062-0.039063 1.1016-0.039062 1.0996h-0.92383-0.92188l-0.039063-1.0996-0.039062-1.1016-1.1074-0.039062-1.1055-0.039063 0.078125-1.7891 1.1016-0.039063 1.0996-0.039062v-1.0625-1.0625zm-6.8574 11.344v19.801c0 1.108 0.892 2 2 2h34c1.108 0 2-0.892 2-2v-19.801h-38zm21.91 1.7539c0.068577 0.005095 0.13719 0.03907 0.21484 0.10352 0.26287 0.21817 0.30354 2.132 0.050781 2.3848-0.41149 0.41149-0.60931 0.064718-0.66016-1.1562-0.038709-0.92948-0.009268-1.1406 0.17578-1.2598 0.08169-0.052607 0.15017-0.077361 0.21875-0.072266zm4.9551 1.875c0.58687 0.068397 0.49974 0.51803-0.26562 1.3555-0.72994 0.79867-1.0929 0.9267-1.3359 0.47266-0.12129-0.22663-0.099263-0.33315 0.10938-0.56641 0.1415-0.1582 0.45844-0.51629 0.70508-0.79492 0.33425-0.37762 0.53382-0.49632 0.78711-0.4668zm-9.8242 0.26367c0.22099-0.010521 0.53781 0.20805 1.0586 0.69141 0.82466 0.76539 0.87949 0.88614 0.55664 1.209-0.11532 0.11532-0.26126 0.21094-0.32422 0.21094s-0.48447-0.35407-0.9375-0.78516c-0.73684-0.70115-0.80767-0.81267-0.67188-1.0664 0.087901-0.16424 0.18577-0.25345 0.31836-0.25976zm4.9199 1.4746c0.40245-0.012668 0.81884 0.040743 1.2363 0.16211 1.4259 0.41451 2.6074 1.9942 2.6074 3.4863 0 0.54621-0.44816 1.7779-0.81641 2.2461-0.1491 0.18956-0.31162 0.33988-0.36133 0.33398-0.049713-0.005938-0.38892-0.24441-0.75586-0.53125-0.74099-0.57924-1.5238-0.88999-2.543-1.0098-0.641-0.075336-0.69547-0.11368-1.002-0.69141-0.17826-0.33603-0.60413-0.89124-0.94727-1.2344l-0.62305-0.62305 0.23633-0.38477c0.67302-1.0932 1.7614-1.7159 2.9688-1.7539zm-5.8828 2.4316c0.43326 0.039026 0.87072 0.16081 1.3574 0.36914 0.8733 0.37381 1.8885 1.5058 2.1797 2.4297l0.22461 0.71289 0.76562-0.06836c3.5338-0.32043 5.386 3.9188 2.7637 6.3262-0.38765 0.35587-0.86361 0.63427-1.3125 0.76758-0.96176 0.28561-11.104 0.30238-11.896 0.019532-1.0872-0.388-1.6744-1.054-1.9727-2.2383-0.41109-1.6326 0.90072-3.3466 2.7012-3.5332l0.70508-0.074219 0.015625-0.78906c0.034382-1.8243 1.2671-3.3174 3.1309-3.7949 0.47505-0.1217 0.90463-0.16598 1.3379-0.12695zm12.113 0.63476c0.99836 0.033337 1.1535 0.070437 1.1953 0.28906 0.026393 0.13798-0.033853 0.30252-0.13281 0.36523-0.32466 0.20575-2.1955 0.14128-2.3809-0.082031-0.13267-0.1599-0.13204-0.24244 0.003906-0.40625 0.13393-0.16139 0.41281-0.19613 1.3145-0.16602zm-2.3496 3.6172c0.15948 0.004949 0.38251 0.16392 0.85547 0.57617 0.77491 0.67544 1.0253 1.1843 0.6875 1.3984-0.29919 0.18964-0.41794 0.13315-1.2285-0.5957-0.80545-0.72424-0.91563-1.0484-0.45898-1.3359 0.045902-0.028906 0.091373-0.044619 0.14453-0.042969z" fill="#f9f9f9"/>
</svg>

<?xml version="1.0" encoding="UTF-8" standalone="no"?>
<svg
   xmlns:dc="http://purl.org/dc/elements/1.1/"
   xmlns:cc="http://creativecommons.org/ns#"
   xmlns:rdf="http://www.w3.org/1999/02/22-rdf-syntax-ns#"
   xmlns:svg="http://www.w3.org/2000/svg"
   xmlns="http://www.w3.org/2000/svg"
   xmlns:sodipodi="http://sodipodi.sourceforge.net/DTD/sodipodi-0.dtd"
   xmlns:inkscape="http://www.inkscape.org/namespaces/inkscape"
   width="48"
   height="48"
   viewBox="0 0 48 48"
   version="1.1"
   id="svg4"
   sodipodi:docname="square.svg"
   inkscape:version="0.92.3 (2405546, 2018-03-11)">
  <metadata
     id="metadata10">
    <rdf:RDF>
      <cc:Work
         rdf:about="">
        <dc:format>image/svg+xml</dc:format>
        <dc:type
           rdf:resource="http://purl.org/dc/dcmitype/StillImage" />
        <dc:title />
      </cc:Work>
    </rdf:RDF>
  </metadata>
  <defs
     id="defs8" />
  <sodipodi:namedview
     pagecolor="#858585"
     bordercolor="#666666"
     borderopacity="1"
     objecttolerance="10"
     gridtolerance="10"
     guidetolerance="10"
     inkscape:pageopacity="0"
     inkscape:pageshadow="2"
     inkscape:window-width="1920"
     inkscape:window-height="1046"
     id="namedview6"
     showgrid="false"
     inkscape:zoom="6.9532167"
     inkscape:cx="10.247279"
     inkscape:cy="21.850234"
     inkscape:window-x="0"
     inkscape:window-y="0"
     inkscape:window-maximized="1"
     inkscape:current-layer="svg4" />
  <path
     d="M 12.388672 8.2929688 C 10.835191 8.3260049 9.3305581 8.5489007 8.3359375 8.9492188 L 7.9492188 9.1035156 L 8.0390625 10.847656 C 8.0880112 11.806777 8.2168466 13.011685 8.3242188 13.525391 C 8.7528241 15.575996 10.046515 17.37281 11.859375 18.429688 C 12.432827 18.764004 12.807337 18.901433 12.988281 18.845703 C 13.611289 18.65383 14.516722 18.019139 15.361328 17.181641 C 16.983066 15.573553 17.643276 13.575613 17.566406 10.513672 L 17.529297 9.0039062 L 16.738281 8.7695312 C 15.54526 8.4157356 13.942153 8.2599323 12.388672 8.2929688 z M 11.857422 9.8554688 L 12.791016 9.8554688 L 13.726562 9.8554688 L 13.726562 10.923828 L 13.726562 11.992188 L 14.859375 11.992188 L 15.994141 11.992188 L 15.994141 12.919922 L 15.994141 13.847656 L 14.892578 13.886719 L 13.792969 13.925781 L 13.753906 15.027344 L 13.714844 16.126953 L 12.791016 16.126953 L 11.869141 16.126953 L 11.830078 15.027344 L 11.791016 13.925781 L 10.683594 13.886719 L 9.578125 13.847656 L 9.6171875 12.953125 L 9.65625 12.058594 L 10.757812 12.019531 L 11.857422 11.980469 L 11.857422 10.917969 L 11.857422 9.8554688 z M 5 21.199219 L 5 41 C 5 42.108 5.892 43 7 43 L 41 43 C 42.108 43 43 42.108 43 41 L 43 21.199219 L 5 21.199219 z M 26.910156 22.953125 C 26.978733 22.95822 27.047348 22.992195 27.125 23.056641 C 27.387874 23.274811 27.428543 25.188644 27.175781 25.441406 C 26.764287 25.8529 26.566475 25.506124 26.515625 24.285156 C 26.476916 23.355675 26.506357 23.144557 26.691406 23.025391 C 26.773096 22.972784 26.841579 22.94803 26.910156 22.953125 z M 31.865234 24.828125 C 32.452105 24.896522 32.364979 25.346158 31.599609 26.183594 C 30.86967 26.982263 30.506672 27.110298 30.263672 26.65625 C 30.142386 26.429624 30.164409 26.323103 30.373047 26.089844 C 30.514546 25.931648 30.831486 25.573557 31.078125 25.294922 C 31.412379 24.917306 31.611947 24.798605 31.865234 24.828125 z M 22.041016 25.091797 C 22.262003 25.081276 22.578829 25.299849 23.099609 25.783203 C 23.924265 26.548594 23.979097 26.669341 23.65625 26.992188 C 23.540928 27.107513 23.394991 27.203125 23.332031 27.203125 C 23.269071 27.203125 22.84756 26.849056 22.394531 26.417969 C 21.657687 25.716816 21.586858 25.605303 21.722656 25.351562 C 21.810557 25.187318 21.908423 25.09811 22.041016 25.091797 z M 26.960938 26.566406 C 27.363388 26.553738 27.77978 26.607149 28.197266 26.728516 C 29.623125 27.143024 30.804688 28.722751 30.804688 30.214844 C 30.804688 30.761056 30.35653 31.992784 29.988281 32.460938 C 29.839176 32.650494 29.676663 32.800822 29.626953 32.794922 C 29.57724 32.788984 29.238028 32.550508 28.871094 32.263672 C 28.130105 31.684434 27.347246 31.373684 26.328125 31.253906 C 25.68713 31.17857 25.632655 31.140225 25.326172 30.5625 C 25.147912 30.226474 24.722046 29.671265 24.378906 29.328125 L 23.755859 28.705078 L 23.992188 28.320312 C 24.665206 27.227099 25.753582 26.60441 26.960938 26.566406 z M 21.078125 28.998047 C 21.511384 29.037073 21.948844 29.158855 22.435547 29.367188 C 23.308844 29.741 24.324006 30.872993 24.615234 31.796875 L 24.839844 32.509766 L 25.605469 32.441406 C 29.139258 32.120974 30.991448 36.360219 28.369141 38.767578 C 27.981494 39.12345 27.505534 39.401849 27.056641 39.535156 C 26.094884 39.82077 15.95276 39.837539 15.160156 39.554688 C 14.072908 39.166685 13.485718 38.500735 13.1875 37.316406 C 12.776406 35.683807 14.088216 33.969757 15.888672 33.783203 L 16.59375 33.708984 L 16.609375 32.919922 C 16.643757 31.095622 17.876477 29.602472 19.740234 29.125 C 20.215284 29.003298 20.644866 28.959021 21.078125 28.998047 z M 33.191406 29.632812 C 34.189768 29.666149 34.344899 29.703249 34.386719 29.921875 C 34.413112 30.059855 34.352866 30.224399 34.253906 30.287109 C 33.929249 30.492856 32.058382 30.428392 31.873047 30.205078 C 31.740381 30.045182 31.741005 29.962637 31.876953 29.798828 C 32.010884 29.637441 32.289763 29.602702 33.191406 29.632812 z M 30.841797 33.25 C 31.001272 33.254949 31.224306 33.413922 31.697266 33.826172 C 32.472176 34.501614 32.722604 35.010468 32.384766 35.224609 C 32.085575 35.414252 31.966829 35.357758 31.15625 34.628906 C 30.350799 33.904666 30.240618 33.580529 30.697266 33.292969 C 30.743168 33.264063 30.788639 33.24835 30.841797 33.25 z "
     id="rect863"
     style="fill:#f9f9f9" />
</svg>
